patterns/atoms/headline/icon.svg

<svg width="24" height="24" xmlns="http://www.w3.org/2000/svg">
  <path d="M5.33386384 16.4338887V6.97094454h1.85431472V10.666376h4.05177664V6.97094454h1.8675127v9.46294416h-1.8675127V12.408508H7.18817856v4.0253807H5.33386384zm9.14619286-6.55279188V8.31053845c.7522881 0 1.3252942-.1000836 1.7190356-.30025381.3937414-.2001702.6499994-.54661344.7687817-1.0393401h1.3659898v9.46294416h-1.8609137V9.88109682h-1.9928934z" fill="#5C5C5C"/>
</svg>

<?xml version="1.0" encoding="UTF-8"?>
<svg width="24px" height="24px" viewBox="0 0 24 24" version="1.1" xmlns="http://www.w3.org/2000/svg" xmlns:xlink="http://www.w3.org/1999/xlink">
    <g fill="#5C5C5C">
        <path d="M5.33386384,16.4338887 L5.33386384,6.97094454 L7.18817856,6.97094454 L7.18817856,10.666376 L11.2399552,10.666376 L11.2399552,6.97094454 L13.1074679,6.97094454 L13.1074679,16.4338887 L11.2399552,16.4338887 L11.2399552,12.408508 L7.18817856,12.408508 L7.18817856,16.4338887 L5.33386384,16.4338887 Z M14.4800567,9.88109682 L14.4800567,8.31053845 C15.2323448,8.31053845 15.8053509,8.21045485 16.1990923,8.01028464 C16.5928337,7.81011444 16.8490917,7.4636712 16.967874,6.97094454 L18.3338638,6.97094454 L18.3338638,16.4338887 L16.4729501,16.4338887 L16.4729501,9.88109682 L14.4800567,9.88109682 Z"></path>
    </g>
</svg>
